X: 1
T: Delaney's
M: 6/8
L: 1/8
R: jig
K: Dmix
ABA ~D3|AFA dcA|GEE cEE|G2E DEG|
A2A DED|AFA dcA|GEE cEE|1 DED D2G:|
|:Adc AB/c/d|ecA dcA|GEE cEE|G2E DEG|
Adc AB/c/d|ecA dcA|GEE cEE|1 DED D2G||
